X:1
T:Min vän är den bästa
T:August Söderman (1832-1876)
T:Min vän är den bästa
T:©PA Aglert Edition may be freely distributed, duplicated, performed and recorded
T:©PA Aglert Edition may be freely distributed, duplicated, performed and recorded
T:©PA Aglert Edition may be freely distributed, duplicated, performed and recorded
T:©PA Aglert Edition may be freely distributed, duplicated, performed and recorded
C:August Söderman (1832-1876)
Z:©PA Aglert
Z:Edition may be freely distributed, duplicated, performed and recorded
%%score [ 1 2 3 4 ]
L:1/8
Q:1/4=100
M:2/4
K:G
V:1 treble nm="S"
V:2 treble nm="A"
V:3 treble-8 nm="T"
V:4 bass nm="B"
V:1
"^Allegro"!p! B, | FF/G/ EE/E/ |!<(! BB/!<)!c/ AA |!mf! ec/c/ B!>(!B/G/ | E!>)!E/^D/ FF | %5
w: Min|vän är den bäs- ta, för-|mer är de fles- ta.|Han vill mig gäs- ta, ej|fres- ta, men fäs- ta.|
!p! FF/G/ EE |!<(! AA/!<)!B/ GG!mf! | dB/B/ GF/G/ |!>(! AA/!>)!B/ G2 |!f! d2 g>g | d2 B z/ B/ | %11
w: Han är den en- da,|kän- da, mig sän- da,|vill u- tan än- da mig|vän- da till frid.|Min vän ej|svi- ker, ej|
 cc/c/ ee/e/ | cc/c/ AA | d2 g>g | d2 B z/!>(! B/ | A2 c2!>)! | A2- A z |!f! d2 g>g | d2 B z/ B/ | %19
w: fi- ker, ej vi- ker, ej|fi- ker, ej vi- ker.|Han gör mig|ri- ker till|e- vig|tid. _|Min vän är|herr- lig, för-|
 cc/c/ ee/e/ | cc/c/ AA | d2 g>g | d2 B z/!>(! B/ |"^rall." A2 c2!>)! | %24
w: fär- lig och kär- lig, för-|fär- lig och kär- lig,|e- vigt be-|gär- lig i|hjär- tats|
 A2- A/ !fermata!z/"^a tempo"!p! B, | FF/G/ EE/E/ |!<(! BB/!<)!c/ AA |!mf! ec/c/ BB/G/ | %28
w: strid. _ Min|vän är den bäs- ta, för-|mer än de fles- ta.|Han vill mig gäs- ta, ej|
 E!>(!E/^D/!>)! FF |!p! FF/G/ E!<(!E | B!<)!B/c/ AA |!ff! ae/c/ BG/!>(!G/ | %32
w: fres- ta, men fäs- ta.|Han är den en- da,|kän- da, mig sän- da,|vill u- tan än- da mig|
 FF/!>)!G/ !fermata!E2 |] %33
w: vän- da till frid.|
V:2
!p! B, | DD/D/ EE/E/ |!<(! GG/!<)!G/ AA |!mf! AA/A/ B!>(!E/E/ | A,!>)!^A,/A,/ B,B, |!p! ^DD/D/ EE | %6
w: Min|vän är den bäs- ta, för-|mer är de fles- ta.|Han vill mig gäs- ta, ej|fres- ta, men fäs- ta.|Han är den en- da,|
!<(! FF/!<)!F/ GG!mf! | GD/D/ DD/^C/ |!>(! !courtesy!=CC/!>)!C/ B,2 |!f! G2 B>B | G2 D z/ D/ | %11
w: kän- da, mig sän- da,|vill u- tan än- da mig|vän- da till frid.|Min vän ej|svi- ker, ej|
 EE/E/ FF/F/ | EE/E/ DD | G2 B>B | G2 D z/!>(! D/ | E2!>)! E2 | D2- D z |!f! G2 B>B | G2 D z/ D/ | %19
w: fi- ker, ej vi- ker, ej|fi- ker, ej vi- ker.|Han gör mig|ri- ker till|e- vig|tid. _|Min vän är|herr- lig, för-|
 EE/E/ FF/F/ | EE/E/ DD | G2 B>B | G2 D z/!>(! D/ | C2!>)! E2 | C2- C/ !fermata!z/!p! B, | %25
w: fär- lig och kär- lig, för-|fär- lig och kär- lig,|e- vigt be-|gär- lig i|hjär- tats|strid. _ Min|
 DD/D/ EE/E/ |!<(! GG/!<)!G/ AA |!mf! AA/A/ BE/E/ | A,!>(!^A,/A,/!>)! B,B, |!p! ^DD/D/ E!<(!E | %30
w: vän är den bäs- ta, för-|mer än de fles- ta.|Han vill mig gäs- ta, ej|fres- ta, men fäs- ta.|Han är den en- da,|
 ^G!<)!G/G/ AA |!ff! AA/A/ GE/!>(!E/ | E^D/!>)!D/ !fermata!E2 |] %33
w: kän- da, mig sän- da,|vill u- tan än- da mig|vän- da till frid.|
V:3
!p! B | AA/A/ GG/G/ |!<(! dd/!<)!d/ cc |!mf! ee/e/ e!>(!B/B/ | E!>)!E/E/ ^DD |!p! AA/A/ GG | %6
w: Min|vän är den bäs- ta, för-|mer är de fles- ta.|Han vill mig gäs- ta, ej|fres- ta, men fäs- ta.|Han är den en- da,|
!<(! cc/!<)!c/ BB!mf! | dB/B/ GG/G/ |!>(! GF/!>)!F/ G2 |!f! B2 d>d | B2 G z/ G/ | AA/A/ cc/c/ | %12
w: kän- da, mig sän- da,|vill u- tan än- da mig|vän- da till frid.|Min vän ej|svi- ker, ej|fi- ker, ej vi- ker, ej|
 AA/A/ FF | B2 d>d | B2 G z/!>(! G/ | G2 G2!>)! | F2- F z |!f! B2 d>d | B2 G z/ G/ | AA/A/ cc/c/ | %20
w: fi- ker, ej vi- ker.|Han gör mig|ri- ker till|e- vig|tid. _|Min vän är|herr- lig, för-|fär- lig och kär- lig, för-|
 AA/A/ FF | B2 d>d | B2 G z/!>(! G/ | G2 G2!>)! | G2- G/ !fermata!z/!p! B | AA/A/ GG/G/ | %26
w: fär- lig och kär- lig,|e- vigt be-|gär- lig i|hjär- tats|strid. _ Min|vän är den bäs- ta, för-|
!<(! dd/!<)!d/ cc |!mf! ee/e/ eB/B/ | E!>(!E/E/!>)! ^DD |!p! AA/A/ G!<(!G | d!<)!d/d/ cc | %31
w: mer än de fles- ta.|Han vill mig gäs- ta, ej|fres- ta, men fäs- ta.|Han är den en- da,|kän- da, mig sän- da,|
!ff! ec/e/ eB/!>(!B/ | BA/!>)!A/ !fermata!G2 |] %33
w: vill u- tan än- da mig|vän- da till frid.|
V:4
!p! B, | B,,B,,/B,,/ E,E,/E,/ |!<(! E,E,/!<)!E,/ A,A, |!mf! CA,/A,/!>(! G,G,/E,/ | %4
w: Min|vän är den bäs- ta, för-|mer är de fles- ta.|Han vill mig gäs- ta, ej|
 C,!>)!C,/C,/ B,,B,, |!p! B,,B,,/B,,/ C,C, |!<(! D,D,/!<)!D,/ G,G,!mf! | B,G,/G,/ E,E,/E,/ | %8
w: fres- ta, men fäs- ta.|Han är den en- da,|kän- da, mig sän- da,|vill u- tan än- da mig|
!>(! D,!>)!D,/D,/ G,,2 |!f! D,2 D,>D, | D,2 D, z/ D,/ | D,D,/D,/ D,D,/D,/ | D,D,/D,/ D,D, | %13
w: vän- da till frid.|Min vän ej|svi- ker, ej|fi- ker, ej vi- ker, ej|fi- ker, ej vi- ker.|
 D,2 D,>D, | D,2 D, z/!>(! D,/ | C,2 A,,2!>)! | D,2- D, z |!f! D,2 D,>D, | D,2 D, z/ D,/ | %19
w: Han gör mig|ri- ker till|e- vig|tid. _|Min vän är|herr- lig, för-|
 D,D,/D,/ D,D,/D,/ | D,D,/D,/ D,D, | D,2 D,>D, | D,2 D, z/!>(! D,/ | E,2 C,2!>)! | %24
w: fär- lig och kär- lig, för-|fär- lig och kär- lig,|e- vigt be-|gär- lig i|hjär- tats|
 A,,2- A,,/ !fermata!z/!p! B, | B,,B,,/B,,/ E,E,/E,/ |!<(! E,E,/!<)!E,/ A,A, | %27
w: strid. _ Min|vän är den bäs- ta, för-|mer än de fles- ta.|
!mf! CA,/A,/ G,G,/E,/ | C,!>(!C,/C,/!>)! B,,B,, |!p! B,,B,,/B,,/ E,!<(!E, | E,!<)!E,/E,/ A,A, | %31
w: Han vill mig gäs- ta, ej|fres- ta, men fäs- ta.|Han är den en- da,|kän- da, mig sän- da,|
!ff! CA,/A,/ B,B,/!>(!B,/ | B,,B,,/!>)!B,,/ !fermata!E,2 |] %33
w: vill u- tan än- da mig|vän- da till frid.|

